X:265
M:2/4
K:G
L:1/8
d|g2 f>e|Be e>f|g2 f/g/f/e/|Be eg/e/|
d/B/G/B/ dd|e/d/e/f/ gg/e/|dB B/A/G/A/|BG G:|]

